X: 1
T:Hairy Chested Frog, The
C:Bobby Casey
R:reel
Z:id:hn-reel-451
M:C|
K:G
dBcA ~G3B|dBcA (3EFG AB|dBcA GBdg|fdde fdcA:|
dg~g2 dgbg|~g2bg fdcA|dg~g2 dgag|fdcA (3EFG AB|
dg~g2 dg~g2|dgag fdga|bg~g2 gbag|fdcA (3EFG AB||
